X:1
T:Die schöne Müllerin (D.795)
T:Danksagung an den Bach
T:4. Danksagung an den Bach
T:Franz Schubert
T:Die schöne Müllerin (D.795)
T:Friedrich Müller
T:OpenScore (CC0) 
T:OpenScore (CC0) 
C:Franz Schubert
Z:Wilhelm Müller
Z:OpenScore (CC0)
Z:
%%score 1 { ( 2 4 ) | 3 }
L:1/8
Q:1/4=65
M:2/4
K:G
V:1 treble nm="Singstimme"
V:2 bass nm="Pianoforte"
V:4 bass 
V:3 bass 
V:1
"^Etwas langsam." z | z4 | z4 | z4 | z2 z B/ c/ | d B/ G/ F3/2 F/ | (G/B/) d/ e/ d3/2 d/ | %7
w: ||||War es|al- so ge- meint, mein|rau- * schen- der Freund, dein|
{e} d B/ G/{G} F F | z B/ c/ d f/ f/ | g B/ c/ d F/ F/ | G z z d | (^c/g/) c/ c/ d3/2 d/ | %12
w: Sin- gen, dein Klin- gen|war es al- so ge-|meint, war es al- so ge-|meint? Zur|Mül- * le- rin hin, so|
 (d/=f/) d/ B/ =c2 | e4 | e B/ B/ c e | d A/ A/ B d | z (B/c/) d f/ f/ | g (B/c/) d F/ F/ | %18
w: lau- * tet der Sinn;|gelt,|hab' ich's ver- stan- den,|hab' ich's ver- stan- den?|zur * Mül- le- rin|hin, zur * Mül- le- rin|
 G z z2 | z4 | z4 | z2 z3/2 d/ | d _B/ G/ F F/ F/ | G _B/ _e/ d3/2 d/ | d c/ _B/ A d/ d/ | %25
w: hin!|||Hat|sie dich ge- schickt, o- der|hast mich be- rückt? das|möcht' ich noch wis- sen, ob|
 =f _e/ c/ _B3/2 d/ | =f _e/ c/ _B z | z2 z3/2 d/ | (d/=e/) d/ c/ B3/2 d/ | =f B/ B/ c c/ d/ | %30
w: sie dich ge- schickt, ob|sie dich ge- schickt.|Nun|wie's * auch~ mag~ sein, ich|ge- be mich d'rein; was ich|
 e e/ d/ (d/c/) B/ A/ | (d/e/) d/ c/ B z | z2 z (B/c/) | d B/ G/ F3/2 F/ | (G/B/) d/ e/ d d/ d/ | %35
w: such', hab' ich fun- * den, wie's|im- * mer mag sein.|Nach *|Ar- beit ich frug, nun|hab' * ich ge- nug, für die|
{e} d B/ G/{G} F F | z (B/c/) d3/2 f/ | g (B/c/) d3/2 F/ | G z z2 | z4 | z4 | z4 |] %42
w: Hän- de, für's Her- ze|voll- * auf ge-|nug, voll- * auf ge-|nug.||||
V:2
!p! (G,/A,/ | B,/D/D,/B,/ C/D/D,/C/) | (B,/D/G/E/ PD/C/A,/D,/) | (B,/D/D,/B,/ C/D/D,/C/) | %4
 (B,/D/E/D/ B,)!pp! (G,/A,/) | (B,/D/D,/B,/ C/D/D,/C/) | (B,/D/D,/B,/ A,/D/D,/C/) | %7
 (B,/D/D,/B,/ C/D/D,/C/) | (B,/D,/G,/A,/ B,/D,/C/D/) | (B,/D,/G,/A,/ B,/D,/C/D/) | %10
 (B,/D/D,/B,/ A,/D/D,/A,/) | (G,/^C/E,/G,/ F,/D/D,/F,/) | (=F,/B,/D,/F,/ E,/C/C,/E,/) | %13
 (B,/E/E,/B,/ C/E/E,/C/) |!pp! (B,/E/E,/B,/ C/E/E,/C/) | (A,/D/D,/A,/ B,/D/D,/G,/) | %16
!mf! (B,/D/G,/A,/ B,/D,/C/D/) | (B,/D,/G,/A,/ B,/B,,/C/D/) |!p! (B,/D/D,/B,/ C/D/D,/C/) | %19
!<(! (B,/D/G/E/!<)!!mf!!>(! PD/C/A,/!>)!D,/) |!p! (B,/D/D,/B,/ C/D/D,/C/) | %21
 (B,/D/E/D/ B,)!pp! (G,/A,/) | (_B,/D/D,/B,/ C/D/D,/C/) | (_B,/D/D,/B,/ A,/D/D,/C/) | %24
 (_B,/D/D,/B,/ A,/D/D,/A,/) | (A,/_E/=F,/A,/ _B,/D/D,/B,/) | (A,/_E/=F,/A,/ _B,/D/F,/B,/) | %27
 (C/D/^F,/C/ C/D/G,/C/) | (C/D/D,/A,/ =B,/D/D,/G,/) | (=F,/B,/D,/F,/ E,/C/C,/E,/) | %30
 (B,/E/E,/B,/ C/E/E,/C/) | (A,/D/D,/A,/ B,/D/D,/B,/) | D/E/D/C/ x x/ x/ | %33
 (B,/D/D,/B,/ C/D/D,/A,/) | (B,/D/D,/B,/ A,/D/D,/C/) | (B,/D/D,/B,/ C/D/D,/C/) | %36
!mf! (B,/D,/G,/A,/ B,/D,/C/D/) | (B,/D,/G,/A,/ B,/D,/C/D/) |!p! (B,/D/D,/B,/ C/D/D,/C/) | %39
 (B,/D/G/E/ PD/C/A,/D,/) |!pp!"_dim." (B,/D/D,/B,/ C/D/D,/C/) | (B,/D/E/D/!ppp! B,) z |] %42
V:3
 z | (G,,D,,F,,D,,) | G,,B,,,/B,,,/ (D,,>F,,) | (G,,D,,F,,D,,) | G,,D,,/D,,/ G,, z | %5
 (G,,D,,A,,D,,) | (G,,D,,F,,D,,) | (G,,D,,A,,D,,) | G,,(G,,/E,,/ D,,)D,,/D,,/ | %9
 (G,,,G,,/E,,/ D,,)D,,/D,,/ | (G,,,G,,F,,,F,,) | (A,,,A,,D,,A,,) | (G,,,G,,C,,G,,) | %13
 (^G,,,^G,,A,,,A,,) | (^G,,,^G,,A,,,A,,) | (F,,,F,,=G,,,=G,,) | (G,,,G,,/E,,/ D,,)D,,/D,,/ | %17
 (G,,,G,,/E,,/ D,,)D,,/D,,/ | (G,,D,,F,,D,,) | G,,B,,,/B,,,/ (D,,>F,,) | (G,,D,,F,,D,,) | %21
 G,,D,,/D,,/ G,,, z | (G,,D,,A,,D,,) | (G,,D,,F,,D,,) | (G,,G,,,F,,,F,,) | (=F,,,=F,,_B,,,_B,,) | %26
 (_B,,,_B,,B,,,B,,) | (A,,,A,,G,,,G,,) | (F,,,F,,G,,,G,,) | (G,,,G,,C,,G,,) | (^G,,,^G,,A,,,A,,) | %31
 (F,,,F,,G,,,G,,) | (F,,D, G,,) z | (G,,D,,A,,D,,) | (G,,D,,F,,D,,) | (G,,D,,A,,D,,) | %36
 (G,,,G,,/E,,/ D,,)D,,/D,,/ | (G,,,G,,/E,,/ D,,)D,,/D,,/ | (G,,D,,F,,D,,) | %39
 G,,B,,,/B,,,/ (D,,>F,,) | (G,,D,,F,,D,,) | G,,D,,/D,,/ G,, z |] %42
V:4
 x | x4 | x4 | x4 | B,A, G, x | x4 | x4 | x4 | x4 | x4 | x4 | x4 | x4 | x4 | x4 | x4 | x4 | x4 | %18
 x4 | x4 | x4 | B,A, G, x | x4 | x4 | x4 | x4 | x4 | x4 | x4 | x4 | x4 | x4 | %32
 (A,2 [G,B,]/)D,/G,/A,/ | x4 | x4 | x4 | x4 | x4 | x4 | x4 | x4 | B,A, G, x |] %42

